X:1
T:Unknown Author 86. 86. (C. M.)
T:E Major Oliver Holden, 1800
T:Funeral Hymn (1800) No copyright. Transcribed from Sacred Dirges, 1800.
%%score [ 1 2 3 ]
L:1/8
M:4/4
K:E
V:1 treble nm="Treble" snm="Tr."
V:2 treble-8 nm="Tenor" snm="T."
V:3 bass nm="Bass" snm="B."
V:1
 G2 | G2 c2 B2 E2 | FE/F/ GF !fermata!E2 B>e | ec cB AG/A/B/A/ G/F/ | (A2 !fermata!G2) z2 B>G | %5
 ec (c2 B2) E2 | A2 G2 !fermata!F2 c2 | B>GA/B/c/e<cd/ eA | G2 F2 !fermata!E2 z2 |] %9
V:2
 B2 | B2 A2 G2 G2 | A2 B2 !fermata!G2 e2 | ce ed c2 B2 | (c2 !fermata!B2) z2 G2 | GG (A2 G2) G2 | %6
w: 1.~Up|to Thy throne, al-|migh- ty King, We|raise * our * stream- ing|eyes; * In|hum- ble notes~ _ of|
 F2 E2 !fermata!B2 A2 | (G4 A>B c)e | B2 A2 !fermata!G2 z2 |] %9
w: judg- ment sing, And|breathe~ _ _ _ our|plain- tive sighs.|
V:3
 E,2 | E,2 E,2 E,2 E,2 | B,,2 B,,2 !fermata!E,2 G,2 | A,2 E,2 A,,2 B,,2 | !fermata!E,4 z2 E,2 | %5
 E,E, E,4 E,2 | D,2 E,2 !fermata!B,,2 E,2 | E,4- E,3 E, | B,,2 B,,2 !fermata!E,2 z2 |] %9

